humanity-icon-theme/Humanity/mimes/22/unknown.svg

<?xml version="1.0" encoding="UTF-8" standalone="no"?>
<!-- Created with Inkscape (http://www.inkscape.org/) -->

<svg
   xmlns:svg="http://www.w3.org/2000/svg"
   xmlns="http://www.w3.org/2000/svg"
   xmlns:xlink="http://www.w3.org/1999/xlink"
   version="1.0"
   width="22"
   height="22"
   id="svg3386">
  <defs
     id="defs3388">
    <linearGradient
       id="linearGradient3104">
      <stop
         id="stop3106"
         style="stop-color:#aaaaaa;stop-opacity:1"
         offset="0" />
      <stop
         id="stop3108"
         style="stop-color:#c8c8c8;stop-opacity:1"
         offset="1" />
    </linearGradient>
    <linearGradient
       id="linearGradient3600">
      <stop
         id="stop3602"
         style="stop-color:#f4f4f4;stop-opacity:1"
         offset="0" />
      <stop
         id="stop3604"
         style="stop-color:#dbdbdb;stop-opacity:1"
         offset="1" />
    </linearGradient>
    <radialGradient
       cx="102"
       cy="112.3047"
       r="139.55859"
       id="XMLID_8_"
       gradientUnits="userSpaceOnUse">
      <stop
         id="stop41"
         style="stop-color:#b7b8b9;stop-opacity:1"
         offset="0" />
      <stop
         id="stop47"
         style="stop-color:#ececec;stop-opacity:1"
         offset="0.17402567" />
      <stop
         id="stop49"
         style="stop-color:#fafafa;stop-opacity:0"
         offset="0.23907544" />
      <stop
         id="stop51"
         style="stop-color:#ffffff;stop-opacity:0"
         offset="0.30111277" />
      <stop
         id="stop53"
         style="stop-color:#fafafa;stop-opacity:0"
         offset="0.53130001" />
      <stop
         id="stop55"
         style="stop-color:#ebecec;stop-opacity:0"
         offset="0.84490001" />
      <stop
         id="stop57"
         style="stop-color:#e1e2e3;stop-opacity:0"
         offset="1" />
    </radialGradient>
    <linearGradient
       id="linearGradient3211">
      <stop
         id="stop3213"
         style="stop-color:#ffffff;stop-opacity:1"
         offset="0" />
      <stop
         id="stop3215"
         style="stop-color:#ffffff;stop-opacity:0"
         offset="1" />
    </linearGradient>
    <linearGradient
       id="linearGradient8589">
      <stop
         id="stop8591"
         style="stop-color:#fefefe;stop-opacity:1"
         offset="0" />
      <stop
         id="stop8593"
         style="stop-color:#cbcbcb;stop-opacity:1"
         offset="1" />
    </linearGradient>
    <linearGradient
       x1="32.892288"
       y1="8.0590115"
       x2="36.358372"
       y2="5.4565363"
       id="linearGradient2425"
       xlink:href="#linearGradient8589"
       gradientUnits="userSpaceOnUse"
       gradientTransform="matrix(0.4778466,0,0,0.5524833,-0.62774609,-0.0761283)" />
    <linearGradient
       x1="24"
       y1="1.9999999"
       x2="24"
       y2="46.01725"
       id="linearGradient2429"
       xlink:href="#linearGradient3211"
       gradientUnits="userSpaceOnUse"
       gradientTransform="matrix(0.4545444,0,0,0.4651153,0.09093361,0.3372293)" />
    <radialGradient
       cx="92.090363"
       cy="102.70267"
       r="139.55859"
       fx="92.090363"
       fy="102.70267"
       id="radialGradient2432"
       xlink:href="#XMLID_8_"
       gradientUnits="userSpaceOnUse"
       gradientTransform="matrix(0.1702128,0,0,-0.1907226,0.10638221,23.716504)" />
    <linearGradient
       x1="25.132275"
       y1="0.98520643"
       x2="25.132275"
       y2="47.013336"
       id="linearGradient2435"
       xlink:href="#linearGradient3600"
       gradientUnits="userSpaceOnUse"
       gradientTransform="matrix(0.4857154,0,0,0.4780255,-0.65717039,-0.7059501)" />
    <linearGradient
       x1="-51.786404"
       y1="50.786446"
       x2="-51.786404"
       y2="2.9062471"
       id="linearGradient2438"
       xlink:href="#linearGradient3104"
       gradientUnits="userSpaceOnUse"
       gradientTransform="matrix(0.3922135,0,0,0.4473607,28.199292,-1.2386997)" />
  </defs>
  <path
     d="m 2.4999608,0.499961 c 3.8955799,0 7.6044552,0 11.5000382,0 0.683368,0.2372969 4.541325,3.12817 5.5,5.000039 0,5.729157 3.9e-5,10.270842 3.9e-5,16 l -17.0000772,0 c 0,-7.33336 0,-13.6666811 0,-21.000039 z"
     id="path4160"
     style="fill:url(#linearGradient2435);fill-opacity:1;stroke:url(#linearGradient2438);stroke-width:0.99992162;stroke-linecap:butt;stroke-linejoin:round;stroke-miterlimit:4;stroke-opacity:1;stroke-dasharray:none;stroke-dashoffset:0;display:inline" />
  <path
     d="M 3.1702119,22 C 3.0764249,22 2.9999991,21.91437 2.9999991,21.809277 l 0,-20.5980318 c 0,-0.1052785 0.076426,-0.1907219 0.1702128,-0.1907219 3.5214555,0.052717 7.4238521,-0.078858 10.9410271,0.013125 l 4.838887,4.3271368 0.04987,16.4484919 C 18.999999,21.914366 18.923742,22 18.829785,22 L 3.1702119,22 z"
     id="path4191"
     style="fill:url(#radialGradient2432);fill-opacity:1" />
  <path
     d="m 18.5,5.6770357 c 0,5.2083053 0,10.6146573 0,15.8229643 -5,0 -9.9999997,0 -15.0000009,0 0,-6.66667 0,-13.333334 0,-20.0000001 3.4372614,0 6.9564989,0 10.3937609,0"
     id="path2435"
     style="opacity:0.6;fill:none;stroke:url(#linearGradient2429);stroke-width:0.99999988;stroke-linecap:butt;stroke-linejoin:miter;stroke-miterlimit:4;stroke-opacity:1;stroke-dasharray:none;stroke-dashoffset:0;display:inline" />
  <path
     d="m 13.075473,1 c 1.156303,0.3287671 0.339059,4.6143789 0.339059,4.6143789 0,0 4.515388,-0.4277362 5.60771,1.1949961 C 20.511395,9.021632 18.954022,6.1742029 18.848795,5.9876778 18.092867,4.6476323 14.982455,1.4405918 13.803386,1.0464703 13.715154,1.0169778 13.51951,1 13.075473,1 z"
     id="path3370"
     style="opacity:0.2;fill:#000000;fill-opacity:1;fill-rule:evenodd;stroke:none;display:inline" />
  <path
     d="m 12.999999,1 c 1.526166,0 1,4 1,4 0,0 4.992074,-0.45326 4.992074,2 0,-0.5977419 0.05575,-1.4784338 -0.06407,-1.6559326 C 18.088896,4.1010616 15.184238,1.4821803 14.129934,1.0464703 14.043956,1.0109384 13.444036,1 12.999999,1 z"
     id="path4474"
     style="fill:url(#linearGradient2425);fill-opacity:1;fill-rule:evenodd;stroke:none;display:inline" />
  <path
     d="m 11.455218,15.981774 c -0.03304,-1.179381 0.231187,-2.324308 1.345435,-3.135304 1.17693,-0.917184 2.310408,-2.064708 2.190623,-3.417377 C 14.965126,8.124565 13.445155,7.1023256 11.807502,6.9553462 9.9654091,6.7001532 7.7364892,7.331214 7.1192155,8.769817 c -0.3130668,0.699688 -0.022751,1.955008 1.0278976,1.955008 0.614526,0 0.896781,-0.396967 0.943151,-0.760098 C 9.1253441,9.68997 9.0125441,9.444614 8.9459318,9.217663 8.8700268,8.959067 9.1940571,8.45788 9.5469731,8.253677 9.8418741,8.083041 10.150416,8.025823 10.195896,8.014893 c 1.059073,-0.254523 2.114816,0.307683 2.55529,0.991956 0.440475,0.684273 -0.04435,1.722183 -0.741427,2.731511 -0.697074,1.009328 -1.445158,2.155718 -1.44217,3.373372 0,0.463561 -0.0413,0.621043 -0.01196,0.808589 0.02345,0.149843 0.519613,0.131735 0.899585,0.06145 z m -0.483327,1.587384 c -1.0126419,-0.05497 -1.7135289,1.092998 -1.1051849,1.824413 0.5432809,0.807553 2.0665129,0.608202 2.3275949,-0.306271 0.27143,-0.711121 -0.381772,-1.530013 -1.22241,-1.518143 l 0,1e-6 z"
     id="path9053"
     style="font-size:72px;font-style:normal;font-weight:bold;opacity:0.6;fill:#000000;fill-opacity:1;stroke:none;font-family:Standard Symbols L" />
  <path
     d="m 11.455218,16.481774 c -0.03304,-1.179381 0.231187,-2.324309 1.345435,-3.135304 1.17693,-0.917184 2.310408,-2.064707 2.190623,-3.417379 C 14.965121,8.624564 13.445155,7.6023252 11.807502,7.4553449 9.9654091,7.2001518 7.7364892,7.8312126 7.1192155,9.269816 c -0.3130668,0.699687 -0.022751,1.955011 1.0278976,1.955011 0.614526,0 0.896781,-0.396968 0.943151,-0.760102 C 9.1253441,10.189968 9.0125441,9.944614 8.9459318,9.717662 8.8700268,9.459066 9.1940571,8.957879 9.5469731,8.753677 9.8418741,8.583039 10.150416,8.525823 10.195896,8.514892 c 1.059073,-0.254523 2.114816,0.307683 2.55529,0.991957 0.440475,0.684273 -0.04435,1.722185 -0.741427,2.731513 -0.697074,1.009326 -1.445158,2.155716 -1.44217,3.373369 0,0.463562 -0.0413,0.621044 -0.01196,0.80859 0.02345,0.149844 0.519613,0.131735 0.899585,0.06145 z m -0.483327,1.587383 c -1.0126419,-0.05497 -1.7135289,1.093 -1.1051849,1.824413 0.5432809,0.807554 2.0665129,0.608204 2.3275949,-0.306271 0.27143,-0.71112 -0.381772,-1.530012 -1.22241,-1.518142 l 0,0 z"
     id="path3298"
     style="font-size:72px;font-style:normal;font-weight:bold;opacity:0.4;fill:#ffffff;fill-opacity:1;stroke:none;font-family:Standard Symbols L" />
</svg>

<?xml version="1.0" encoding="UTF-8" standalone="no"?>
<!-- Created with Inkscape (http://www.inkscape.org/) -->
<svg id="svg3386" xmlns="http://www.w3.org/2000/svg" height="22" width="22" version="1.0" xmlns:xlink="http://www.w3.org/1999/xlink">
 <defs id="defs3388">
  <linearGradient id="linearGradient2425" y2="5.4565" gradientUnits="userSpaceOnUse" x2="36.358" gradientTransform="matrix(.47785 0 0 .55248 -.62775 -.076128)" y1="8.059" x1="32.892">
   <stop id="stop8591" style="stop-color:#fefefe" offset="0"/>
   <stop id="stop8593" style="stop-color:#cbcbcb" offset="1"/>
  </linearGradient>
  <linearGradient id="linearGradient2429" y2="46.017" gradientUnits="userSpaceOnUse" x2="24" gradientTransform="matrix(.45454 0 0 .46512 .090934 .33723)" y1="2" x1="24">
   <stop id="stop3213" style="stop-color:#fff" offset="0"/>
   <stop id="stop3215" style="stop-color:#fff;stop-opacity:0" offset="1"/>
  </linearGradient>
  <radialGradient id="radialGradient2432" gradientUnits="userSpaceOnUse" cy="102.7" cx="92.09" gradientTransform="matrix(.17021 0 0 -.19072 .10638 23.717)" r="139.56">
   <stop id="stop41" style="stop-color:#b7b8b9" offset="0"/>
   <stop id="stop47" style="stop-color:#ececec" offset=".17403"/>
   <stop id="stop49" style="stop-color:#fafafa;stop-opacity:0" offset=".23908"/>
   <stop id="stop51" style="stop-color:#fff;stop-opacity:0" offset=".30111"/>
   <stop id="stop53" style="stop-color:#fafafa;stop-opacity:0" offset=".53130"/>
   <stop id="stop55" style="stop-color:#ebecec;stop-opacity:0" offset=".84490"/>
   <stop id="stop57" style="stop-color:#e1e2e3;stop-opacity:0" offset="1"/>
  </radialGradient>
  <linearGradient id="linearGradient2435" y2="47.013" gradientUnits="userSpaceOnUse" x2="25.132" gradientTransform="matrix(.48572 0 0 .47803 -.65717 -.70595)" y1=".98521" x1="25.132">
   <stop id="stop3602" style="stop-color:#f4f4f4" offset="0"/>
   <stop id="stop3604" style="stop-color:#dbdbdb" offset="1"/>
  </linearGradient>
  <linearGradient id="linearGradient2438" y2="2.9062" gradientUnits="userSpaceOnUse" x2="-51.786" gradientTransform="matrix(.39221 0 0 .44736 28.199 -1.2387)" y1="50.786" x1="-51.786">
   <stop id="stop3106" style="stop-color:#aaa" offset="0"/>
   <stop id="stop3108" style="stop-color:#c8c8c8" offset="1"/>
  </linearGradient>
 </defs>
 <path id="path4160" style="stroke-linejoin:round;stroke:url(#linearGradient2438);stroke-width:.99992;fill:url(#linearGradient2435)" d="m2.5 0.49996h11.5c0.68337 0.2373 4.5413 3.1282 5.5 5 0 5.7292 0.000039 10.271 0.000039 16h-17v-21z"/>
 <path id="path4191" style="fill:url(#radialGradient2432)" d="m3.1702 22c-0.0938 0-0.1702-0.086-0.1702-0.191v-20.598c0-0.10528 0.076426-0.19072 0.17021-0.19072 3.5215 0.052717 7.4239-0.078858 10.941 0.013125l4.8389 4.3271 0.04987 16.448c0 0.106-0.076 0.192-0.17 0.192h-15.66z"/>
 <path id="path2435" style="opacity:.6;stroke:url(#linearGradient2429);fill:none" d="m18.5 5.677v15.823h-15v-20h10.394"/>
 <path id="path3370" style="opacity:.2;fill-rule:evenodd" d="m13.075 1c1.1563 0.32877 0.33906 4.6144 0.33906 4.6144s4.5154-0.42774 5.6077 1.195c1.489 2.2122-0.068-0.6352-0.173-0.8217-0.756-1.3401-3.867-4.5471-5.046-4.9412-0.088-0.0295-0.283-0.0465-0.728-0.0465z"/>
 <path id="path4474" style="fill:url(#linearGradient2425);fill-rule:evenodd" d="m13 1c1.5262 0 1 4 1 4s4.9921-0.45326 4.9921 2c0-0.59774 0.05575-1.4784-0.06407-1.6559-0.839-1.243-3.744-3.8619-4.798-4.2976-0.086-0.0356-0.686-0.0465-1.13-0.0465z"/>
 <path id="path9053" style="opacity:.6" d="m11.455 15.982c-0.03304-1.1794 0.23119-2.3243 1.3454-3.1353 1.1769-0.91718 2.3104-2.0647 2.1906-3.4174-0.026-1.3047-1.546-2.327-3.183-2.474-1.8426-0.2551-4.0715 0.3759-4.6888 1.8145-0.31307 0.69969-0.022751 1.955 1.0279 1.955 0.61453 0 0.89678-0.39697 0.94315-0.7601 0.0351-0.2747-0.0777-0.5201-0.1443-0.747-0.0759-0.2586 0.2482-0.7598 0.6011-0.964 0.2949-0.1707 0.603-0.2279 0.649-0.2388 1.0591-0.25452 2.1148 0.30768 2.5553 0.99196 0.44048 0.68427-0.04435 1.7222-0.74143 2.7315-0.69707 1.0093-1.4452 2.1557-1.4422 3.3734 0 0.46356-0.0413 0.62104-0.01196 0.80859 0.02345 0.14984 0.51961 0.13174 0.89958 0.06145zm-0.48333 1.5874c-1.0126-0.05497-1.7135 1.093-1.1052 1.8244 0.54328 0.80755 2.0665 0.6082 2.3276-0.30627 0.27143-0.71112-0.38177-1.53-1.2224-1.5181v0.000001z"/>
 <path id="path3298" style="opacity:.4;fill:#fff" d="m11.455 16.482c-0.03304-1.1794 0.23119-2.3243 1.3454-3.1353 1.1769-0.91718 2.3104-2.0647 2.1906-3.4174-0.026-1.3047-1.546-2.327-3.183-2.474-1.8426-0.2551-4.0715 0.3759-4.6888 1.8145-0.31307 0.69969-0.022751 1.955 1.0279 1.955 0.61453 0 0.89678-0.39697 0.94315-0.7601 0.0351-0.275-0.0777-0.5204-0.1443-0.7473-0.0759-0.2586 0.2482-0.7598 0.6011-0.964 0.2949-0.1707 0.603-0.2279 0.649-0.2388 1.0591-0.25452 2.1148 0.30768 2.5553 0.99196 0.44048 0.68427-0.04435 1.7222-0.74143 2.7315-0.69707 1.0093-1.4452 2.1557-1.4422 3.3734 0 0.46356-0.0413 0.62104-0.01196 0.80859 0.02345 0.14984 0.51961 0.13174 0.89958 0.06145zm-0.48333 1.5874c-1.0126-0.05497-1.7135 1.093-1.1052 1.8244 0.54328 0.80755 2.0665 0.6082 2.3276-0.30627 0.27143-0.71112-0.38177-1.53-1.2224-1.5181z"/>
</svg>
